X: 20491
M: 2/4
L: 1/8
K: D
d2 (d/e/f/g/) | ("_Fz."a2 f).f |\
.e.a .e.a | (f/g/f/e/) dA |\
d2 (d/e/f/g/) | ("_Fz."a2 f).f |\
ea c'b | a2 z :|\
"_FP."f2 ff | d2 dd |\
g2 gg | e2 z"_P."e |
f2 ff | d2 dd |\
g2 gg | e2 z"_P."A |\
f2 ff | g2 f2 |\
e2 de | f4 |\
f2 ff | ag fe |\
(f/e/d/e/) fe | d3 "_F."A |\
("_P."d2 A)f | (d2 A)f |\
("_F."a/g/)e (a/g/)e | (a/g/)e (a/g/e) |\
(d2 A)f | (d2A)f |\
(a/g/)e (a/g/)e | (a/g/)e (a/g/)e |\
fd/f/ a2 | fd/f/ a2 |\
fd/d/ dd | d4 |]


